!!!!SEGMENT: pl-wtm--r-1328_stefani-jozef--ulubiony-mazur-z-baletu-wesele-w-ojcowie.krn
!!!cenid: 18xx:2399
!!!COM: Stefani, Józef
!!!COM-rismid: pe30024097
!!!CDT: 1800/04/16-1876/03/19
!!!CNT: Polish
!!!OTL: Ulubiony mazur z baletu Wesele w Ojcowie
!!!PDT:
!!!AGN: Secular
!!!SMS-siglum: PL-Wtm
!!!SMS-shelfmark: R 1328
!!!SMS-shelfwork: W
!!!SMS-variant:
!!!SMS-altvar:
!!!NIFC-rismid: 1001119384
!!!URL-scan: http://repozytorium.nifc.pl/skany/pl-wtm-nut--r1328
!!!ONB-nifc:
!!!AIN: 1 forte
!!!key:
**kern	**kern	**dynam
*part1	*part1	*part1
*staff2	*staff1	*
*Iforte	*Iempty	*
*I"[Fortepian]	*	*
*>[A,A,B,B,C,C1,C,C2,D,D,A,B,E]	*>[A,A,B,B,C,C1,C,C2,D,D,A,B,E]	*
*>A	*>A	*
*clefF4	*clefG2	*
*k[f#c#]	*k[f#c#]	*
*D:	*D:	*
*M3/8	*M3/8	*
=1	=1	=1
!LO:TX:t=P:problem=4\, 8\, 16\middle or right	!LO:TX:a:B:t=Mazur.	!
!	!LO:TUP:a:problem=klamra łukowa, haczyk zamiast numeru	!
16AAA/ 16AA	(24ee\LL 24gg	f
.	24ff#\ 24aa	.
16r	.	.
.	24ee\JJ) 24gg	.
16AA\ 16C# 16E 16A	16cc#'\ 16ee	.
16r	16r	.
16AAA/ 16AA	16a'\ 16cc# 16ee 16gg	.
16r	16r	.
=2	=2	=2
!	!LO:TUP:a:problem=brak klamry, haczyk zamiast numeru	!
16DD/ 16D	24a'\LL 24dd 24ff#	.
.	(24bb\	.
16r	.	.
.	24aa\JJ)	.
8D\L 8F# 8A	8ff#'\	.
8D\J 8F# 8A	8dd'\	.
=3	=3	=3
!	!LO:TUP:a	!
16AAA/ 16AA	(24ee\LL 24gg	.
.	24ff#\ 24aa	.
16r	.	.
.	24ee\JJ) 24gg	.
16AA\ 16C# 16E 16A	16cc#\ 16ee	.
16r	16r	.
16AAA/ 16AA	16a\ 16cc# 16ee 16gg	.
16r	16r	.
=4	=4	=4
!	!LO:TUP:a:problem=brak klamry, haczyk zamiast numeru	!
16DD/ 16D	24a|\LL 24dd 24ff#	.
.	(24cc#\	.
16r	.	.
.	24dd\JJ)	.
8D\L 8F# 8A	(8bT</L	.
8D\J 8F# 8A	16a/Jk)	.
.	16r	.
=5	=5	=5
!	!LO:TUP:a	!
16AAA/ 16AA	(24ee\LL 24gg	.
.	24ff#\ 24aa	.
16r	.	.
.	24ee\JJ) 24gg	.
16AA\ 16C# 16E 16A	16cc#\ 16ee	.
16r	16r	.
16AAA/ 16AA	16a\ 16cc# 16ee 16gg	.
16r	16r	.
!!LO:LB:g=original
=6	=6	=6
!	!LO:TUP:a:brak klamry, haczyk zamiast numeru	!
16DD/ 16D	24a~\LL 24dd 24ff#	.
.	(24bb\	.
16r	.	.
.	24aa\JJ)	.
8D\L 8F# 8A	8ff#'\L	.
8D\J 8F# 8A	8dd'\J	.
=7	=7	=7
16AAA/ 16AA	16.cc#'\LL 16.ee	.
16r	.	.
.	32dd'\K 32ff#	.
8AA\L 8E 8A	16.ee'\ 16.gg	.
.	32ff#'\K 32aa	.
8AA\J 8E 8A	16.gg'\ 16.bb	.
.	32ee'\JJk 32ccc#	.
=8	=8	=8
16D\ 16F# 16A	16ff#\ 16ddd	.
16r	16r	.
8D\ 8F# 8A	8d/ 8f# 8a 8dd	.
8r	8r	.
=9:|!|:	=9:|!|:	=9:|!|:
*>B	*>B	*
16.FF#/LL 16.F#	16.f#'\LL 16.a#X 16.cc# 16.ff#	f
32FF#/JJk 32F#	32f#'\JJk 32a# 32cc# 32ff#	.
8FF#/L 8F#	8f#'\L 8a# 8cc# 8ff#	.
8AA#X/J 8A#X	8f#'\J 8cc# 8ee	.
=10	=10	=10
8BB\L 8B	8f#'>^/L 8b 8dd	.
8C#\ 8c#	8f#'>^/ 8a#X 8cc#	.
8D\J 8d	8f#'>^/J 8b	.
=11	=11	=11
16.FF#/LL 16.F#	16.f#\LL 16.a#X 16.cc# 16.ff#	.
32FF#/JJk 32F#	32f#\JJk 32a# 32cc# 32ff#	.
8FF#/L 8F#	8f#\L 8a# 8cc# 8ff#	.
8EE/J 8E	8cc#\J 8ff# 8aa#X	.
!!LO:LB:g=original
=12	=12	=12
8DD/L 8D	8dd'^<\L 8ff# 8bb	.
8CC#/ 8C#	8ff#'^<\ 8aa#X 8ccc#	.
8BBB/J 8BB	8ff#'^<\J 8bb 8ddd	.
=13	=13	=13
16.EE/LL 16.E	16.e/LL 16.g#X 16.b 16.ee	.
32EE/JJk 32E	32e/JJk 32g# 32b 32ee	.
8EE/L 8E	8e/L 8g# 8b 8ee	.
8GG#X/J 8G#X	8e/J 8b 8dd	.
=14	=14	=14
8AA\L 8A	8e'>^/L 8a 8cc#	.
8BB\ 8B	8e'>^/ 8g#X 8b	.
8C#\J 8c#	8e'>^/J 8a	.
=15	=15	=15
16.EE/LL 16.E	16.e\LL 16.g#X 16.b 16.ee	.
32EE/JJk 32E	32e\JJk 32g# 32b 32ee	.
8EE/L 8E	8e\L 8g# 8b 8ee	.
8DD/J 8D	8b\J 8ee 8gg#X	.
=16	=16	=16
8CC#/L 8C#	8cc#'^<\L 8ee 8aa	.
8BBB/ 8BB	8ee'^<\ 8gg#X 8bb	.
8AAA/J 8AA	8ee'^<\J 8aa 8ccc#	.
=17	=17	=17
!	!LO:TUP:a	!
16AAA/ 16AA	(24ee\LL 24ggn	.
.	24ff#\ 24aa	.
16r	.	.
.	24ee\JJ) 24gg	.
16AA\ 16C# 16E 16A	16cc#\ 16ee	.
16r	16r	.
16AAA/ 16AA	16a\ 16cc# 16ee 16gg	.
16r	16r	.
!!LO:LB:g=original
=18	=18	=18
*	*Xtuplet	*
16DD/ 16D	24a'\LL 24dd 24ff#	.
.	(24bb\	.
16r	.	.
.	24aa\JJ)	.
8D\L 8F# 8A	8ff#'\L	.
8D\J 8F# 8A	8dd'\J	.
=19	=19	=19
*	*tuplet	*
!	!LO:TUP:a	!
16AAA/ 16AA	(24ee\LL 24gg	.
.	24ff#\ 24aa	.
16r	.	.
.	24ee\JJ) 24gg	.
16AA\ 16C# 16E 16A	16cc#\ 16ee	.
16r	16r	.
16AAA/ 16AA	16a\ 16cc# 16ee 16gg	.
16r	16r	.
=20	=20	=20
*	*Xtuplet	*
16DD/ 16D	24a'\LL 24dd 24ff#	.
.	(24cc#\	.
16r	.	.
.	24dd\JJ)	.
8D\L 8F# 8A	(8bT</L	.
8D\J 8F# 8A	16a/Jk)	.
.	16r	.
=21	=21	=21
*	*tuplet	*
!	!LO:TUP:a:problem=brak klamry, kropka zamiast numeru	!
16AAA/ 16AA	(24ee\LL 24gg	.
.	24ff#\ 24aa	.
16r	.	.
.	24ee\JJ 24gg	.
16AA\ 16C# 16E 16A	16cc#\) 16ee	.
16r	16r	.
16AAA/ 16AA	16a'\ 16cc# 16ee 16gg	.
16r	16r	.
=22	=22	=22
*	*Xtuplet	*
16DD/ 16D	24a'\LL 24dd 24ff#	.
.	(24bb\	.
16r	.	.
.	24aa\JJ)	.
8D\L 8F# 8A	8ff#'\L	.
8D\J 8F# 8A	8dd'\J	.
!!LO:LB:g=original
=23	=23	=23
16AAA/ 16AA	16.cc#'\LL 16.ee	.
16r	.	.
.	32dd'\K 32ff#	.
8AA\L 8E 8A	16.ee'\ 16.gg	.
.	32ff#'\K 32aa	.
8AA\J 8E 8A	16.gg'\ 16.bb	.
.	32ee'\JJk 32ccc#	.
=24	=24	=24
16D\ 16F# 16A	16ff#'\ 16ddd	.
16r	16r	.
8D\ 8F# 8A	8d'>/ 8f# 8a 8dd	.
8r	8r	.
!!LO:PB:g=original
*kcancel	*	*
=25:|!|:;	=25:|!|:;	=25:|!|:
*>C	*>C	*
*k[f#]	*k[f#]	*
*G:	*G:	*
!	!LO:TX:a:B:t=Trio.	!
16.GG\LL 16.D 16.G	16.B/LL 16.d 16.g	f
32GG\JJk 32D 32G	32B/JJk 32d 32g	.
8GG\L 8D 8G	8B/L 8d 8g	.
8GG\J 8D 8G	8B/J 8d 8g	.
=26	=26	=26
*tremolo	*tremolo	*
8GG\L 8D 8G	8B/L 8d 8g	.
8GG\ 8D 8G	8B/ 8d 8g	.
8GG\J 8D 8G	8B/J 8d 8g	.
*Xtremolo	*Xtremolo	*
=27	=27	=27
16.GG\LL 16.D 16.G	16.B/LL 16.d 16.g	.
32GG\JJk 32D 32G	32B/JJk 32d 32g	.
8GG\L 8D 8G	8B/L 8d 8g	.
8GG\J 8D 8G	8B/J 8d 8g	.
=28	=28	=28
*tremolo	*tremolo	*
8GG\L 8D 8G	8B/L 8d 8g	.
8GG\ 8D 8G	8B/ 8d 8g	.
8GG\J 8D 8G	8B/J 8d 8g	.
*Xtremolo	*Xtremolo	*
=29	=29	=29
16GGG/ 16GG	24d'/LL	p
.	(24g/	.
16r	.	.
.	24b/JJ)	.
8GG\L 8BB 8D 8G	8dd'\L	.
8GG\J 8AA 8C#X 8G	8ee'\J	sf
=30	=30	=30
*rep	*	*
16GGG/ 16GG	((24dd\LL	.
.	24cc\)	.
16r	.	.
.	24b\JJ)	.
8GG\L 8BB 8D 8G	8dd\L	.
8GG\J 8AA 8C#X 8G	8ee\J	sf
!!LO:LB:g=original
*Xrep	*	*
=31	=31	=31
16GG\ 16BB 16D 16G	((16dd\LL	.
16r	16b\JJ)	.
8GG\L 8C 8D 8F#	16a/LL)	.
.	16e'/	.
8GG\J 8C 8D 8F#	16f#'/	.
.	16d'/JJ	.
=32	=32	=32
*	*tuplet	*
!	!LO:TUP:b	!
16GG\ 16BB 16D 16G	(24g/LL	.
.	24f#/	.
16r	.	.
.	24e/JJ)	.
4GG\ 4BB 4D 4G	4d^/	.
=33	=33	=33
*	*Xtuplet	*
16GGG/ 16GG	24d'/LL	.
.	(24g/	.
16r	.	.
.	24b/JJ)	.
8GG\L 8BB 8D 8G	8dd'\L	.
8GG\J 8AA#X 8C#X 8G	8ee'\J	sf
=34	=34	=34
*rep	*tuplet	*
!	!LO:TUP:a	!
16GGG/ 16GG	(24dd\LL	.
.	24cc\	.
16r	.	.
.	24b\JJ)	.
8GG\L 8BB 8D 8G	8dd'\L	.
8GG\J 8AA#X 8C#X 8G	8ee'\J	sf
*Xrep	*	*
=35	=35	=35
*>C1	*>C1	*
16FF#/ 16F#	8.ff#\L	f
16r	.	.
8F#\L 8A#X 8e	.	.
.	16ee\L	.
8F#\J 8A# 8e	16cc#X\	.
.	16dd\JJ	.
=36	=36	=36
!	!LO:TX:a:i:t=1ma	!
16B\ 16d	16b\	.
16r	16r	.
8BB\ 8B	8b\ 8dd#X 8ff# 8bb	.
8r	8r	.
!!LO:LB:g=original
=37:|!	=37:|!	=37:|!
*>C2	*>C2	*
16GG/ 16BB 16D 16G	(16dd\LL	.
16r	16b\JJ)	.
8GG/L 8C 8D 8F#	16a/LL	.
.	16e'/	.
8GG/J 8C 8D 8F#	16f#'/	.
.	16d'/JJ	.
=38	=38	=38
!	!LO:TX:a:i:t=2	!
16GG/ 16BB 16D 16G	(32a/KLL	.
.	16g/JJ)	.
16r	.	.
.	32r	.
4GG\ 4BB 4D 4G	4g'/	.
=39!|:	=39!|:	=39!|:
*>D	*>D	*
!	!LO:TUP:a	!
16BBB/ 16BB	(24b\LL	f
.	24cc\	.
16r	.	.
.	24b\JJ)	.
8BB\L 8F# 8A	8f#'/L	.
8BB\J 8F# 8A	8f#'/J 8b 8dd#X	.
=40	=40	=40
*	*Xtuplet	*
16EE/ 16E	24g'\LL 24b 24ee	.
.	(24ff#\	.
16r	.	.
.	24gg\JJ)	.
4E\ 4G	4ee\	.
=41	=41	=41
*	*tuplet	*
!	!LO:TUP:a	!
16FF#/ 16F#	(24dd\LL	p
.	24ee\	.
16r	.	.
.	24dd\JJ)	.
8D\L 8A 8c	8a\L	.
8D\J 8A 8c	8f#\J 8a 8dd	.
=42	=42	=42
!	!LO:TUP:b	!
16GG/ 16G	(24b/LL	.
.	24cc/	.
16r	.	.
.	24b/JJ)	.
4D\ 4G 4B	4g/	.
=43	=43	=43
!	!LO:TUP:b	!
16BBB/ 16BB	(24b/LL	f
.	24cc/	.
16r	.	.
.	24b/JJ)	.
8BB\L 8F# 8A	8f#'/L	.
8BB\J 8F# 8A	8f#'/J 8b 8dd#X	.
!!LO:LB:g=original
=44	=44	=44
*	*Xtuplet	*
16EE/ 16E	24g'\LL 24b 24ee	.
.	(24ff#\	.
16r	.	.
.	24gg\JJ)	.
16.EE/LL 16.E	16.ee\LL	.
32DD/K 32D	32ee\K 32gg	<
16.CC#X/ 16.C#X	16.ee\ 16.aa	.
32CCn/JJk 32Cn	32ee\JJk 32aa#X	.
=45	=45	=45
.	(>16qqb/LL	[ f
.	16qqee/	.
.	16qqgg/JJ	.
16BBB/ 16BB	8.bb\L	.
16r	.	.
8E\L 8G	.	.
.	16aa\L	.
8BB\J 8D#X 8A	16ff#\	.
.	16gg\JJ)	.
=46	=46	=46
16E\ 16G	16ee\	.
16r	16r	.
8EE/ 8E	8ee^<\ 8gg 8eee	.
8r	8r	.
=47	=47	=47
16GGG/ 16GG	24d`/LL	p
.	(24g/	.
16r	.	.
.	24b/JJ)	.
8GG\L 8BB 8D 8G	8dd'\L	.
8GG\J 8AA#X 8C#X 8G	8ee'\J	sf
=48	=48	=48
*rep	*tuplet	*
!	!LO:TUP:a	!
16GGG/ 16GG	(24dd\LL	.
.	24cc\	.
16r	.	.
.	24b\JJ)	.
8GG\L 8BB 8D 8G	8dd'\L	.
8GG\J 8AA#X 8C#X 8G	8ee'\J	sf
*Xrep	*	*
=49	=49	=49
16GG\ 16BB 16D 16G	(16dd/LL	.
16r	16b/JJ	.
8GG\L 8C 8D 8F#	16a/LL)	.
.	16e'/	.
8GG\J 8C 8D 8F#	16f#'/	.
.	16d'/JJ	.
!!LO:LB:g=original
=50	=50	=50
!	!LO:TUP:b	!
16GG\ 16BB 16D 16G	(24g/LL	.
.	24f#/	.
16r	.	.
.	24e/JJ)	.
4GG\ 4BB 4D 4G	4d/	.
=51	=51	=51
*	*Xtuplet	*
16GGG/ 16GG	24d|/LL	.
.	(24g/	.
16r	.	.
.	24b/JJ)	.
8GG\L 8BB 8D 8G	8dd'\L	.
8GG\J 8AA#X 8C#X 8G	8ee'\J	sf
=52	=52	=52
*rep	*tuplet	*
!	!LO:TUP:a	!
16GGG/ 16GG	(24dd\LL	.
.	24cc\	.
16r	.	.
.	24b\JJ)	.
8GG\L 8BB 8D 8G	8dd'\L	.
8GG\J 8AA#X 8C#X 8G	8ee'\J	sf
*Xrep	*	*
=53	=53	=53
16GG\ 16BB 16D 16G	(16dd\LL	.
16r	16b\JJ	.
8GG\L 8C 8D 8F#	16a/LL)	.
.	16e'/	.
8GG\J 8C 8D 8F#	16f#'/	.
.	16d'/JJ	.
=54	=54	=54
16GG/ 16BB 16D 16G	(32a/KLL	.
.	16g/JJ)	.
16r	.	.
.	32r	.
!	!LO:TX:b:i:t=dacapo\nMazur	!
4GG\ 4BB 4D 4G	4g'/	.
!!LO:PB:g=original
=55:|!;	=55:|!;	=55:|!
*>E	*>E	*
*k[f#c#]	*k[f#c#]	*
*b:	*b:	*
*^	*	*
!	!	!LO:TX:a:B:t=Coda.	!
!	!	!LO:TUP:a	!
4.G/	8G\L	(24ee\LL	p
.	.	24ff#\	.
.	.	24ee\JJ)	.
.	8B\ 8e	8b\L	.
.	8B\J 8e	8ee\J	.
=56	=56	=56	=56
4.A/	8A\L	16.cc#\LL	.
.	.	32bb\JJk	.
.	8c#\ 8g	8aa\L	.
.	8c#\J 8g	8gg\J	.
*v	*v	*	*
=57	=57	=57
16.D\LL 16.d	16.dd\LL 16.ff#	.
32C#\JJk 32c#	32ee\JJk 32aa	<
8BB\L 8B	8ff#\L 8ddd	.
8AA\J 8A	8aa\J 8ccc# 8eee	[
=58	=58	=58
*	*8va	*
16.DD/LL 16.D	16.ddd\LL 16.fff#	f
32BBB/JJk 32BB	32ddd\JJk 32ggg	.
8AAA/L 8AA	8ddd\L 8fff# 8aaa	.
8GGG#X/J 8GG#X	8ddd^<\J 8fffn 8bbb	.
=59	=59	=59
8AAA/ 8AA	8ddd\ 8fff# 8aaa	.
!	!LO:TUP:a:problem=brak klamry, haczyk zamiast numeru	!
8r	(24aaa\LL	.
.	24fff#\	.
.	24ddd\JJ	.
8r	8aa/)	.
*	*X8va	*
=60	=60	=60
!	!LO:TX:a:t=loco	!
8AAA/ 8AA	8aa\	.
!	!LO:TUP:a:problem=brak klamry, haczyk zamiast numeru	!
24AA\LL	(24aa\LL	.
24D\	24ff#\	.
24F#\JJ	24dd\JJ	.
8A\	8a/)	.
!!LO:LB:g=original
=61	=61	=61
8AA\L 8A	8a/	.
8AA\ 8D 8F# 8A	8a\L 8dd 8ff#	.
8AA\J 8E 8A	8a\J 8cc# 8ee	.
=62	=62	=62
4.r	4.r	.
=63	=63	=63
*^	*	*
!	!	!LO:TUP:a:problem=brak klamry, haczyk zamiast numeru	!
4.C#X/	8C#X\L	(24gg\LL	p
.	.	24aa\	.
.	.	24gg\JJ	.
.	8E\ 8G 8A	8ee\L)	.
.	8E\J 8G 8A	8gg'\J	.
=64	=64	=64	=64
*	*	*Xtuplet	*
4.D/	8D\L	24ff#'\LL	.
.	.	(24bb\	.
.	.	24aa\JJ	.
.	8F#\ 8A	8ff#\L)	.
.	8F#\J 8A	8dd\J	.
=65	=65	=65	=65
*	*	*tuplet	*
!	!	!LO:TUP:a:problem=brak klamry, haczyk zamiast numeru	!
4.AA/	8AA\L	(24ee\LL	.
.	.	24ff#\	.
.	.	24ee\JJ	.
.	8E\ 8G	8b\L)	.
.	8E\J 8G	8cc#X\J	.
=66	=66	=66	=66
*	*	*Xtuplet	*
4D/	8D\L	24dd'\LL	.
.	.	24ff#'\	.
.	.	24bb'\JJ	.
.	8E\ 8G#X 8B	(8gg#X^<\L	.
8rcyy	8D\J 8F# 8A	8aa\J)	.
=67	=67	=67	=67
*	*	*tuplet	*
!	!	!LO:TUP:a:problem=brak klamry, haczyk zamiast numeru	!
4.C#/	8C#\L	(24gg\LL	.
.	.	24aa\	.
.	.	24gg\JJ	.
.	8E\ 8G 8A	8ee\L)	.
.	8E\J 8G 8A	8gg'\J	.
=68	=68	=68	=68
*	*	*Xtuplet	*
4.D/	8D\L	24ff#'\LL	.
.	.	(24bb\	.
.	.	24aa\JJ	.
.	8F#\ 8A	8ff#\L)	.
.	8F#\J 8A	8dd\J	.
*v	*v	*	*
!!LO:LB:g=original
=69	=69	=69
16.AA\LL 16.A	16.cc#'\LL 16.ee	ff
32GG#X\JJk 32G#X	32dd'\JJk 32ff#	.
16.GGn\LL 16.Gn	16.ee'\LL 16.gg	.
32EE#X\JJk 32E#X	32ff#'\JJk 32aa	.
16.EEn\LL 16.En	16.gg'\LL 16.bb	.
32AAA\JJk 32AA	32ee'\JJk 32ccc#	.
=70	=70	=70
16DD/ 16D	16ff#\ 16ddd	.
16r	16r	.
8D\ 8F# 8A	8d/ 8f# 8a 8dd	.
8r	8r	.
==	==	==
*-	*-	*-
!!!system-decoration: {(s1,s2)}
!!!RDF**kern: > = above
!!!RDF**kern: < = below
!!!RDF**kern: | = vertical stroke
!!!ENC: Mateusz Solarz
!!!END: 2021-06-10
